X:1
T: Lord Montgomerie
C:John Gow
R:Strathspey
Q: 128
K:Gm
M:4/4
L:1/16
|:B2|GG3 G3^F G2G,2 G,2CB,|A,2C2 F3D CDB,C A,3B|G3G G3B, G,A,B,C D3B|Aced cBAB G4 G2B2|
GG3 G3^F G2G,2 G,2CB,|A,2C2 F3D CDB,C A,3B|G3G G3B, G,A,B,C D3B Aced cBAB G4 G2GA|
B2G2 G3A BcdB G2GA|B2G2 G3F DFBG F2GA|B2G2 d3e c3d B2ba|g3a ^f4 g4 g2GA|
B2G2 G3A BcdB G2GA|B2G2 G3F DFBG F2GA|B3G ((3E2e2c2) ((3D2d2B2) ((3C2c2A2) |((3B,2B2G2) ((3A,2A2^F2) G4 G2:|
